img/epoxidniy-pol.svg

<svg width="115" height="115" viewBox="0 0 115 115" fill="none" xmlns="http://www.w3.org/2000/svg">
<g filter="url(#filter0_i_1875_14752)">
<rect width="115" height="115" rx="15" fill="#F8F4F4"/>
</g>
<g filter="url(#filter1_d_1875_14752)">
<path d="M17.0099 61.207H97.2246L109.021 96.1036H6L17.0099 61.207Z" fill="#C1141E"/>
</g>
<g filter="url(#filter2_d_1875_14752)">
<path fill-rule="evenodd" clip-rule="evenodd" d="M73.8736 17.7179C72.7475 19.2572 71.9857 21.0315 71.6454 22.9072C71.6504 23.023 71.6575 23.1389 71.6644 23.2539C71.6751 23.4302 71.6856 23.6045 71.6887 23.7738V60.0365C71.6887 60.1871 71.6922 60.3364 71.6957 60.485C71.6992 60.6324 71.7027 60.7792 71.7027 60.9259C73.2857 59.0894 74.7732 57.1809 76.1653 55.2004C78.0105 52.574 80.0172 50.095 82.3077 47.8307C86.0874 44.0972 89.8389 40.3298 93.5905 36.5622C94.8695 35.2778 96.1486 33.9933 97.4287 32.7102C97.5543 32.5869 97.6639 32.4476 97.7709 32.3116C97.7918 32.285 97.8126 32.2586 97.8334 32.2324C97.7718 32.1479 97.7056 32.0668 97.6349 31.9897C96.5511 30.9104 95.4693 29.8295 94.3876 28.7487C91.7468 26.1101 89.1063 23.4717 86.4369 20.8576C84.4353 18.9059 82.3039 17.1004 79.6685 16H76.5013C76.41 16.143 76.2677 16.1747 76.1266 16.2062C76.0672 16.2194 76.0079 16.2326 75.9528 16.2541C75.1384 16.5743 74.3978 17.0127 73.8736 17.7179ZM71.6609 23.2008C71.6553 23.1029 71.6496 23.005 71.6454 22.9072C71.6001 23.0703 71.5578 23.2345 71.5154 23.3988C71.4267 23.7427 71.3379 24.0873 71.2216 24.4243C69.9415 28.1003 67.3838 30.6492 64.0753 32.5475C63.7587 32.7183 63.3962 32.785 63.0395 32.7381C61.6665 32.6199 60.4207 32.1244 59.2373 31.451C58.4941 31.0317 57.7204 30.7153 56.8551 30.6886C54.7504 30.6238 53.0058 32.0698 52.4447 34.4001C52.147 35.6338 52.1018 36.8933 52.0565 38.1531C52.0352 38.7462 52.0139 39.3394 51.9662 39.9299C53.2788 40.0244 54.5932 40.0741 55.9073 40.1238C56.4838 40.1456 57.0602 40.1674 57.6365 40.1929C58.5535 40.2353 59.4704 40.2813 60.3873 40.3274C62.2211 40.4194 64.0549 40.5115 65.8899 40.5741C67.5963 40.6326 68.398 41.7164 68.0697 43.3784C68.0439 43.5015 68.0281 43.6264 68.0226 43.752C68.0065 44.277 67.9923 44.8021 67.9781 45.3273C67.9509 46.3363 67.9236 47.3456 67.8826 48.3543C67.8139 49.9476 67.7248 51.5397 67.6281 53.1318C67.6054 53.599 67.4025 54.0393 67.0618 54.3603C66.7211 54.6813 66.2692 54.8581 65.8008 54.8536C64.1621 54.8808 62.5234 54.7929 60.8847 54.7051C59.8511 54.6496 58.8176 54.5942 57.7841 54.5677C56.961 54.5463 56.1383 54.4989 55.3152 54.4515C54.5222 54.4058 53.7288 54.3601 52.9346 54.3377C52.391 54.3221 51.848 54.2888 51.3048 54.2555C51.0507 54.24 50.7966 54.2244 50.5423 54.2106C49.708 56.4719 48.3267 58.492 46.5212 60.0911C46.1221 60.4527 45.7462 60.8404 45.3703 61.2281C45.2032 61.4005 45.0361 61.5729 44.8669 61.743C43.2725 63.3427 42.5052 65.3033 42.4276 67.5294C42.322 70.6082 43.5715 73.0618 45.9817 74.95C46.196 74.95 46.3726 75.0423 46.5517 75.1359C46.5959 75.159 46.6402 75.1822 46.6853 75.2041C49.168 76.4175 51.6252 76.4277 54.1702 75.274C61.0747 72.1406 66.521 67.2245 71.2929 61.4672C71.3728 61.3694 71.4609 61.2779 71.5489 61.1866C71.5911 61.1427 71.6333 61.0988 71.6746 61.0543C71.6814 61.0162 71.6891 60.978 71.6975 60.9399C71.6961 60.8234 71.6936 60.7077 71.6912 60.5924C71.6874 60.411 71.6835 60.2307 71.6835 60.0505V23.7877C71.6835 23.5921 71.6722 23.3964 71.6609 23.2008Z" fill="white"/>
<path fill-rule="evenodd" clip-rule="evenodd" d="M71.6999 60.9357C71.6914 60.9738 71.6838 61.012 71.677 61.0501L71.6774 61.4019L71.6766 61.0502C71.6375 61.0919 71.5979 61.133 71.5582 61.1742C71.4671 61.2686 71.3757 61.3635 71.2897 61.4669C66.5179 67.2242 61.0716 72.1365 54.167 75.2737C51.6259 76.4274 49.1648 76.4173 46.6822 75.2038C46.6393 75.1823 46.597 75.1595 46.555 75.1369C46.3737 75.0394 46.1954 74.9435 45.9785 74.9497C46.1831 75.1713 46.3866 75.3948 46.5903 75.6185C47.7309 76.8711 48.8777 78.1305 50.2554 79.1072C52.7762 80.8937 55.549 81.2063 58.3994 79.9204C63.4461 77.6422 67.9125 74.5354 71.6995 70.4796L71.6995 70.47C71.7368 70.4377 71.7748 70.4058 71.8128 70.3739C71.9009 70.2999 71.9891 70.2259 72.0702 70.1466C75.2642 66.9954 77.9581 63.4338 80.6087 59.8379C80.848 59.5129 81.0856 59.1866 81.3231 58.8603C82.6235 57.0739 83.9226 55.2892 85.5129 53.7388C86.1351 53.1353 86.8146 52.5139 87.6621 52.3538C88.8214 52.134 89.8075 51.6308 90.7301 50.9625C93.9314 48.6525 96.5944 45.7645 99.2433 42.8918L99.3831 42.7402C100.734 41.2802 101.116 39.3857 100.862 37.3768C100.596 35.2168 99.4022 33.6208 97.8306 32.2422C97.7907 32.2901 97.7515 32.3389 97.7123 32.3877C97.6205 32.5021 97.5286 32.6166 97.426 32.7199C95.9644 34.1835 94.5045 35.6491 93.0445 37.1149C89.4747 40.6989 85.9039 44.2838 82.3049 47.8405C80.0144 50.1048 78.0077 52.5838 76.1626 55.2102C74.7662 57.1899 73.2787 59.0984 71.6999 60.9357Z" fill="#707070"/>
<path d="M51.9634 39.9297C53.8518 40.0669 55.744 40.1088 57.6336 40.1927C60.3848 40.3198 63.1346 40.4748 65.887 40.5739C67.5934 40.6323 68.3951 41.7175 68.0668 43.3782C68.041 43.5012 68.0253 43.6262 68.0197 43.7518C67.9727 45.2854 67.9421 46.8204 67.8798 48.354C67.8136 49.9474 67.7245 51.5395 67.6253 53.1316C67.6045 53.5997 67.4027 54.0415 67.0624 54.364C66.7221 54.6866 66.2697 54.8647 65.8005 54.8609C63.1283 54.9054 60.456 54.6437 57.7838 54.5751C56.1677 54.5331 54.5529 54.3908 52.9343 54.3451C52.1364 54.3222 51.3398 54.2612 50.542 54.218C50.9339 52.9842 51.2699 51.7403 51.336 50.4379C52.6238 50.6831 53.9332 50.5649 55.2299 50.6412C57.9746 50.8051 60.7258 50.8546 63.4693 51.0528C63.706 51.0706 63.9376 51.077 63.9516 50.725C64.0305 48.7555 64.1153 46.7865 64.2061 44.8178C64.2226 44.4582 64.0788 44.3591 63.7301 44.3413C61.5936 44.2333 59.4596 44.0707 57.3219 43.9868C55.4551 43.9144 53.5858 43.8826 51.7229 43.7124L51.9634 39.9297Z" fill="#707070"/>
<path d="M51.7321 43.707C53.5937 43.8773 55.463 43.9091 57.331 43.9815C59.4688 44.0653 61.6028 44.228 63.7393 44.336C64.088 44.3538 64.2318 44.4529 64.2152 44.8125C64.1211 46.782 64.0362 48.751 63.9607 50.7197C63.9467 51.0716 63.7152 51.0653 63.4785 51.0475C60.735 50.8493 57.9838 50.7934 55.2391 50.6358C53.9424 50.5596 52.633 50.6778 51.3452 50.4325C51.4742 48.1911 51.6031 45.9493 51.7321 43.707Z" fill="white"/>
</g>
<g filter="url(#filter3_d_1875_14752)">
<path d="M25.9657 63.5859L28.554 71.6904L35.549 74.6894L28.554 77.6883L25.9657 85.7928L23.3773 77.6883L16.3823 74.6894L23.3773 71.6904L25.9657 63.5859Z" fill="white"/>
</g>
<g filter="url(#filter4_d_1875_14752)">
<path d="M37.9446 76.2773L39.6701 81.7768L44.3334 83.8118L39.6701 85.8468L37.9446 91.3463L36.219 85.8468L31.5557 83.8118L36.219 81.7768L37.9446 76.2773Z" fill="white"/>
</g>
<defs>
<filter id="filter0_i_1875_14752" x="0" y="0" width="117" height="117" filterUnits="userSpaceOnUse" color-interpolation-filters="sRGB">
<feFlood flood-opacity="0" result="BackgroundImageFix"/>
<feBlend mode="normal" in="SourceGraphic" in2="BackgroundImageFix" result="shape"/>
<feColorMatrix in="SourceAlpha" type="matrix" values="0 0 0 0 0 0 0 0 0 0 0 0 0 0 0 0 0 0 127 0" result="hardAlpha"/>
<feOffset dx="2" dy="2"/>
<feGaussianBlur stdDeviation="3"/>
<feComposite in2="hardAlpha" operator="arithmetic" k2="-1" k3="1"/>
<feColorMatrix type="matrix" values="0 0 0 0 0 0 0 0 0 0 0 0 0 0 0 0 0 0 0.05 0"/>
<feBlend mode="normal" in2="shape" result="effect1_innerShadow_1875_14752"/>
</filter>
<filter id="filter1_d_1875_14752" x="3" y="60.207" width="109.021" height="40.8984" filterUnits="userSpaceOnUse" color-interpolation-filters="sRGB">
<feFlood flood-opacity="0" result="BackgroundImageFix"/>
<feColorMatrix in="SourceAlpha" type="matrix" values="0 0 0 0 0 0 0 0 0 0 0 0 0 0 0 0 0 0 127 0" result="hardAlpha"/>
<feOffset dy="2"/>
<feGaussianBlur stdDeviation="1.5"/>
<feComposite in2="hardAlpha" operator="out"/>
<feColorMatrix type="matrix" values="0 0 0 0 0 0 0 0 0 0 0 0 0 0 0 0 0 0 0.25 0"/>
<feBlend mode="normal" in2="BackgroundImageFix" result="effect1_dropShadow_1875_14752"/>
<feBlend mode="normal" in="SourceGraphic" in2="effect1_dropShadow_1875_14752" result="shape"/>
</filter>
<filter id="filter2_d_1875_14752" x="39.4214" y="15" width="64.5142" height="70.7031" filterUnits="userSpaceOnUse" color-interpolation-filters="sRGB">
<feFlood flood-opacity="0" result="BackgroundImageFix"/>
<feColorMatrix in="SourceAlpha" type="matrix" values="0 0 0 0 0 0 0 0 0 0 0 0 0 0 0 0 0 0 127 0" result="hardAlpha"/>
<feOffset dy="2"/>
<feGaussianBlur stdDeviation="1.5"/>
<feComposite in2="hardAlpha" operator="out"/>
<feColorMatrix type="matrix" values="0 0 0 0 0 0 0 0 0 0 0 0 0 0 0 0 0 0 0.25 0"/>
<feBlend mode="normal" in2="BackgroundImageFix" result="effect1_dropShadow_1875_14752"/>
<feBlend mode="normal" in="SourceGraphic" in2="effect1_dropShadow_1875_14752" result="shape"/>
</filter>
<filter id="filter3_d_1875_14752" x="13.3823" y="62.5859" width="25.1665" height="28.207" filterUnits="userSpaceOnUse" color-interpolation-filters="sRGB">
<feFlood flood-opacity="0" result="BackgroundImageFix"/>
<feColorMatrix in="SourceAlpha" type="matrix" values="0 0 0 0 0 0 0 0 0 0 0 0 0 0 0 0 0 0 127 0" result="hardAlpha"/>
<feOffset dy="2"/>
<feGaussianBlur stdDeviation="1.5"/>
<feComposite in2="hardAlpha" operator="out"/>
<feColorMatrix type="matrix" values="0 0 0 0 0 0 0 0 0 0 0 0 0 0 0 0 0 0 0.25 0"/>
<feBlend mode="normal" in2="BackgroundImageFix" result="effect1_dropShadow_1875_14752"/>
<feBlend mode="normal" in="SourceGraphic" in2="effect1_dropShadow_1875_14752" result="shape"/>
</filter>
<filter id="filter4_d_1875_14752" x="28.5557" y="75.2773" width="18.7778" height="21.0703" filterUnits="userSpaceOnUse" color-interpolation-filters="sRGB">
<feFlood flood-opacity="0" result="BackgroundImageFix"/>
<feColorMatrix in="SourceAlpha" type="matrix" values="0 0 0 0 0 0 0 0 0 0 0 0 0 0 0 0 0 0 127 0" result="hardAlpha"/>
<feOffset dy="2"/>
<feGaussianBlur stdDeviation="1.5"/>
<feComposite in2="hardAlpha" operator="out"/>
<feColorMatrix type="matrix" values="0 0 0 0 0 0 0 0 0 0 0 0 0 0 0 0 0 0 0.25 0"/>
<feBlend mode="normal" in2="BackgroundImageFix" result="effect1_dropShadow_1875_14752"/>
<feBlend mode="normal" in="SourceGraphic" in2="effect1_dropShadow_1875_14752" result="shape"/>
</filter>
</defs>
</svg>

<svg width="115" height="115" fill="none" xmlns="http://www.w3.org/2000/svg"><g filter="url(#filter0_i_1875_14752)"><rect width="115" height="115" rx="15" fill="#F8F4F4"/></g><g filter="url(#filter1_d_1875_14752)"><path d="M17.01 61.207h80.215l11.796 34.897H6l11.01-34.897z" fill="#C1141E"/></g><g filter="url(#filter2_d_1875_14752)"><path fill-rule="evenodd" clip-rule="evenodd" d="M73.874 17.718a12.598 12.598 0 00-2.229 5.19c.005.115.013.23.02.346.01.176.02.35.024.52v36.262c0 .151.003.3.007.449.003.147.007.294.007.44a73.512 73.512 0 004.462-5.725c1.845-2.626 3.852-5.105 6.143-7.37 3.78-3.733 7.53-7.5 11.282-11.268l3.839-3.852c.125-.123.235-.262.342-.398l.062-.08a2.796 2.796 0 00-.198-.242c-1.084-1.08-2.166-2.16-3.247-3.241a1116.383 1116.383 0 00-7.951-7.891C84.435 18.906 82.304 17.1 79.668 16h-3.167c-.091.143-.233.175-.374.206-.06.013-.12.027-.174.048-.815.32-1.555.759-2.08 1.464zM71.66 23.2l-.016-.294c-.045.163-.087.328-.13.492-.088.344-.177.688-.293 1.025-1.28 3.676-3.838 6.225-7.147 8.123a1.71 1.71 0 01-1.036.191c-1.373-.118-2.618-.614-3.802-1.287-.743-.42-1.517-.736-2.382-.762-2.105-.065-3.85 1.38-4.41 3.711-.298 1.234-.343 2.493-.389 3.753-.02.593-.042 1.186-.09 1.777 1.313.094 2.627.144 3.941.194.577.022 1.153.043 1.73.069.916.042 1.833.088 2.75.134 1.834.092 3.668.184 5.503.247 1.706.059 2.508 1.142 2.18 2.804a2.315 2.315 0 00-.047.374l-.045 1.575a221.503 221.503 0 01-.095 3.027 272.261 272.261 0 01-.255 4.778 1.808 1.808 0 01-1.827 1.722c-1.639.027-3.278-.061-4.916-.149a110.85 110.85 0 00-3.1-.137c-.824-.022-1.647-.07-2.47-.116a81.16 81.16 0 00-2.38-.114c-.544-.016-1.087-.05-1.63-.083l-.763-.044a14.612 14.612 0 01-4.02 5.88c-.4.362-.776.75-1.152 1.137-.167.172-.334.345-.503.515-1.594 1.6-2.362 3.56-2.44 5.786-.105 3.08 1.145 5.533 3.555 7.421.214 0 .39.092.57.186l.133.068c2.483 1.214 4.94 1.224 7.485.07 6.905-3.133 12.351-8.05 17.123-13.807.08-.098.168-.19.256-.28l.126-.133c.006-.038.014-.076.023-.114l-.007-.348c-.004-.181-.008-.361-.008-.541V23.788c0-.196-.01-.392-.022-.587z" fill="#fff"/><path fill-rule="evenodd" clip-rule="evenodd" d="M71.7 60.936a2.722 2.722 0 00-.023.114v.352-.352l-.119.124c-.09.095-.182.19-.268.293-4.772 5.757-10.218 10.67-17.123 13.807-2.541 1.153-5.002 1.143-7.485-.07l-.127-.067c-.181-.098-.36-.194-.577-.187.205.221.409.445.612.668 1.14 1.253 2.288 2.513 3.665 3.49 2.521 1.786 5.294 2.098 8.144.812 5.047-2.278 9.513-5.385 13.3-9.44v-.01l.114-.096c.088-.074.176-.148.257-.227 3.194-3.152 5.888-6.713 8.539-10.31.239-.324.477-.65.714-.977 1.3-1.786 2.6-3.57 4.19-5.121.622-.604 1.302-1.225 2.15-1.385 1.158-.22 2.145-.723 3.067-1.392 3.201-2.31 5.864-5.198 8.513-8.07l.14-.152c1.351-1.46 1.733-3.354 1.479-5.363-.266-2.16-1.46-3.756-3.031-5.135l-.119.146a4.158 4.158 0 01-.286.332c-1.462 1.464-2.922 2.93-4.382 4.395-3.57 3.584-7.14 7.169-10.74 10.725-2.29 2.265-4.296 4.744-6.141 7.37a75.953 75.953 0 01-4.463 5.726z" fill="#707070"/><path d="M51.963 39.93c1.889.137 3.781.179 5.67.263 2.752.127 5.502.282 8.254.38 1.706.06 2.508 1.145 2.18 2.805a2.325 2.325 0 00-.047.374c-.047 1.533-.078 3.068-.14 4.602a231.064 231.064 0 01-.255 4.778A1.809 1.809 0 0165.8 54.86c-2.672.044-5.344-.217-8.016-.286-1.616-.042-3.231-.184-4.85-.23-.798-.023-1.594-.084-2.392-.127.392-1.234.728-2.478.794-3.78 1.288.245 2.597.127 3.894.203 2.745.164 5.496.214 8.24.412.236.018.468.024.482-.328.079-1.97.163-3.939.254-5.907.017-.36-.127-.459-.476-.477-2.136-.108-4.27-.27-6.408-.354-1.867-.073-3.736-.104-5.6-.275l.241-3.782z" fill="#707070"/><path d="M51.732 43.707c1.862.17 3.731.202 5.599.274 2.138.084 4.272.247 6.408.355.349.018.493.117.476.477a613.854 613.854 0 00-.254 5.907c-.014.352-.246.345-.483.328-2.743-.199-5.494-.255-8.239-.412-1.297-.076-2.606.042-3.894-.204.13-2.24.258-4.483.387-6.725z" fill="#fff"/></g><g filter="url(#filter3_d_1875_14752)"><path d="M25.966 63.586l2.588 8.104 6.995 3-6.995 2.998-2.588 8.105-2.589-8.105-6.995-2.999 6.995-2.999 2.589-8.104z" fill="#fff"/></g><g filter="url(#filter4_d_1875_14752)"><path d="M37.945 76.277l1.725 5.5 4.663 2.035-4.663 2.035-1.725 5.5-1.726-5.5-4.663-2.035 4.663-2.035 1.726-5.5z" fill="#fff"/></g><defs><filter id="filter0_i_1875_14752" x="0" y="0" width="117" height="117" filterUnits="userSpaceOnUse" color-interpolation-filters="sRGB"><feFlood flood-opacity="0" result="BackgroundImageFix"/><feBlend in="SourceGraphic" in2="BackgroundImageFix" result="shape"/><feColorMatrix in="SourceAlpha" values="0 0 0 0 0 0 0 0 0 0 0 0 0 0 0 0 0 0 127 0" result="hardAlpha"/><feOffset dx="2" dy="2"/><feGaussianBlur stdDeviation="3"/><feComposite in2="hardAlpha" operator="arithmetic" k2="-1" k3="1"/><feColorMatrix values="0 0 0 0 0 0 0 0 0 0 0 0 0 0 0 0 0 0 0.05 0"/><feBlend in2="shape" result="effect1_innerShadow_1875_14752"/></filter><filter id="filter1_d_1875_14752" x="3" y="60.207" width="109.021" height="40.898" filterUnits="userSpaceOnUse" color-interpolation-filters="sRGB"><feFlood flood-opacity="0" result="BackgroundImageFix"/><feColorMatrix in="SourceAlpha" values="0 0 0 0 0 0 0 0 0 0 0 0 0 0 0 0 0 0 127 0" result="hardAlpha"/><feOffset dy="2"/><feGaussianBlur stdDeviation="1.5"/><feComposite in2="hardAlpha" operator="out"/><feColorMatrix values="0 0 0 0 0 0 0 0 0 0 0 0 0 0 0 0 0 0 0.25 0"/><feBlend in2="BackgroundImageFix" result="effect1_dropShadow_1875_14752"/><feBlend in="SourceGraphic" in2="effect1_dropShadow_1875_14752" result="shape"/></filter><filter id="filter2_d_1875_14752" x="39.421" y="15" width="64.514" height="70.703" filterUnits="userSpaceOnUse" color-interpolation-filters="sRGB"><feFlood flood-opacity="0" result="BackgroundImageFix"/><feColorMatrix in="SourceAlpha" values="0 0 0 0 0 0 0 0 0 0 0 0 0 0 0 0 0 0 127 0" result="hardAlpha"/><feOffset dy="2"/><feGaussianBlur stdDeviation="1.5"/><feComposite in2="hardAlpha" operator="out"/><feColorMatrix values="0 0 0 0 0 0 0 0 0 0 0 0 0 0 0 0 0 0 0.25 0"/><feBlend in2="BackgroundImageFix" result="effect1_dropShadow_1875_14752"/><feBlend in="SourceGraphic" in2="effect1_dropShadow_1875_14752" result="shape"/></filter><filter id="filter3_d_1875_14752" x="13.382" y="62.586" width="25.166" height="28.207" filterUnits="userSpaceOnUse" color-interpolation-filters="sRGB"><feFlood flood-opacity="0" result="BackgroundImageFix"/><feColorMatrix in="SourceAlpha" values="0 0 0 0 0 0 0 0 0 0 0 0 0 0 0 0 0 0 127 0" result="hardAlpha"/><feOffset dy="2"/><feGaussianBlur stdDeviation="1.5"/><feComposite in2="hardAlpha" operator="out"/><feColorMatrix values="0 0 0 0 0 0 0 0 0 0 0 0 0 0 0 0 0 0 0.25 0"/><feBlend in2="BackgroundImageFix" result="effect1_dropShadow_1875_14752"/><feBlend in="SourceGraphic" in2="effect1_dropShadow_1875_14752" result="shape"/></filter><filter id="filter4_d_1875_14752" x="28.556" y="75.277" width="18.778" height="21.07" filterUnits="userSpaceOnUse" color-interpolation-filters="sRGB"><feFlood flood-opacity="0" result="BackgroundImageFix"/><feColorMatrix in="SourceAlpha" values="0 0 0 0 0 0 0 0 0 0 0 0 0 0 0 0 0 0 127 0" result="hardAlpha"/><feOffset dy="2"/><feGaussianBlur stdDeviation="1.5"/><feComposite in2="hardAlpha" operator="out"/><feColorMatrix values="0 0 0 0 0 0 0 0 0 0 0 0 0 0 0 0 0 0 0.25 0"/><feBlend in2="BackgroundImageFix" result="effect1_dropShadow_1875_14752"/><feBlend in="SourceGraphic" in2="effect1_dropShadow_1875_14752" result="shape"/></filter></defs></svg>
